build-source/logos/cineplusfamiz.default.svg

<svg xmlns="http://www.w3.org/2000/svg" viewBox="0 0 600 319.53"><defs><clipPath id="0"><path d="m45.36 296.64h19.761v10.345h-19.761v-10.345"/></clipPath></defs><g transform="translate(37.14-418.31)"><g clip-path="url(#0)" transform="matrix(31.2598 0 0-31.2598-1472.87 10014.71)"><path d="m62.51 306.99h-16.577v-5.235h16.577v5.235" fill="#443a3d"/><g fill="#fff"><path d="m0 0c0-.043-.035-.078-.11-.105-.207-.07-.398-.105-.578-.105-.27 0-.528.066-.779.202-.501.277-.779.74-.779 1.312 0 .315.087.599.255.856.172.257.403.447.692.568.188.082.388.121.603.121.145 0 .301-.024.469-.066.051-.012.09-.028.125-.043l.043-.02c.035-.015.055-.042.055-.077v-.751c0-.02-.008-.028-.02-.028-.003 0-.015.008-.035.02-.058.058-.144.105-.258.144-.121.042-.231.062-.324.062-.341 0-.626-.179-.756-.479-.043-.097-.062-.202-.062-.315 0-.222.082-.401.246-.541.153-.128.341-.195.564-.195.254 0 .449.07.594.215.012.015.024.023.031.023.016 0 .024-.023.024-.074v-.724" transform="translate(49.06 303.16)"/><path d="m49.618 305.95h.763v-2.919h-.763v2.919"/><path d="m0 0l-1.401 1.786v-1.786h-.763v2.919h.763l1.401-1.787v1.787h.763v-2.919h-.763" transform="translate(53.15 303.03)"/><path d="m0 0v2.919h.254l.043.12h1.158l-.043-.12h.255v-.643h-.904v-.486h.857v-.642h-.857v-.506h.904v-.642h-1.667" transform="translate(54.45 303.03)"/></g><path d="m0 0c-5.237-.566-10.474-1.133-15.712-1.699-.162 1.822-.323 3.645-.485 5.468 5.221.297 10.443.594 15.664.89.177-1.553.355-3.106.533-4.659" fill="#fab20b" transform="translate(65.69 298.47)"/><g fill="#fff"><path d="m0 0c.076-.333.114-.499.19-.83.299.029.449.044.748.074-.252.998-.502 1.998-.752 2.998-.296-.02-.444-.03-.74-.05-.113-.423-.17-.636-.284-1.062-.005-.016-.0001-.031-.018-.045-.007-.014-.016-.028-.025-.04-.0001-.013-.021-.024-.033-.035-.012-.0001-.024-.019-.038-.026-.014-.008-.028-.014-.043-.019-.015-.005-.031-.008-.048-.009-.017 0-.033 0-.049 0-.016.003-.031.007-.046.012-.015.005-.03.012-.044.021-.013.008-.026.017-.038.028-.012.011-.023.023-.033.036-.0001.013-.019.027-.027.042-.189.405-.283.608-.473 1.016-.295-.02-.443-.03-.739-.049-.06-1.058-.119-2.116-.178-3.174.297.029.446.044.744.073.013.347.019.521.032.868.002.018.005.034.009.05.005.016.011.032.018.046.007.015.016.028.026.041.009.013.02.025.032.035.012.0001.025.02.038.027.014.008.029.015.044.019.015.005.031.009.048.0001.016 0 .033 0 .048 0 .016-.002.032-.006.047-.011.015-.006.03-.012.043-.02.014-.009.027-.018.039-.029.012-.011.023-.022.033-.036.0001-.013.018-.026.026-.042.169-.348.254-.522.423-.868.12.012.18.018.3.029.103.372.155.558.259.927.005.016.011.031.018.045.007.015.016.028.025.041.0001.013.021.024.033.034.012.011.024.02.038.027.014.008.028.014.044.019.015.005.031.008.047.0001.017 0 .033 0 .049-.002.016-.002.032-.005.047-.0001.014-.006.029-.012.043-.02.013-.008.026-.017.038-.028.012-.011.024-.022.034-.035.0001-.013.018-.027.026-.042.007-.014.014-.03.019-.046" transform="translate(58.926 299.57)"/><path d="m0 0c-.202-.018-.383.151-.405.376-.021.226.125.421.327.437.202.016.384-.153.405-.377.022-.223-.125-.419-.327-.436m.219 2.034c-.326-.022-.488-.033-.813-.055-.269-1.105-.536-2.21-.801-3.316.316.031.474.047.791.078.04.163.061.244.101.407.009.033.024.063.043.09.02.026.043.048.071.064.028.016.058.027.091.03.281.026.422.039.703.065.033.003.066 0 .096-.012.029-.011.057-.028.081-.05.024-.022.045-.049.06-.079.068-.151.102-.226.17-.376.319.031.479.047.798.078-.467 1.024-.931 2.049-1.391 3.076" transform="translate(54.43 299.48)"/><path d="m0 0c.419.041.628.062 1.047.103-.067.632-.135 1.264-.202 1.896-.419-.033-.628-.049-1.046-.082.067-.639.134-1.278.201-1.917" transform="translate(60.36 298.86)"/><path d="m0 0c-.31-.019-.534-.299-.5-.624.034-.326.313-.57.624-.547.31.024.534.303.5.624-.035.322-.314.567-.624.547" transform="translate(60.53 302.22)"/><path d="m0 0c-.014.15.082.281.214.293.232.02.347.03.578.049-.027.286-.04.429-.067.714-.231-.018-.346-.027-.577-.046-.132-.001-.25.104-.265.254-.013.15.083.28.215.29.263.019.394.029.657.049-.026.285-.04.427-.067.712-.657-.044-.986-.066-1.643-.11.1-1.097.2-2.195.3-3.292.299.029.449.044.748.074-.037.405-.056.608-.093 1.013" transform="translate(52.11 299.07)"/><path d="m0 0c-.016-.002-.033 0-.049 0-.015.002-.031.006-.046.0001-.015.005-.03.012-.044.019-.013.008-.026.017-.038.027-.012.0001-.023.021-.033.033-.011.012-.02.026-.027.04-.008.013-.014.029-.019.044-.005.016-.009.032-.011.049 0 .016 0 .033 0 .049.002.016.005.032.009.047.004.015.0001.03.017.043.304.66.61 1.319.919 1.976-.792-.053-1.584-.106-2.375-.159.028-.26.042-.39.07-.651.282.021.423.031.705.052.017 0 .033 0 .049-.002.016 0 .031-.005.047-.011.014-.005.029-.011.043-.019.013-.008.026-.017.038-.027.012-.011.024-.022.033-.034.011-.013.02-.026.027-.04.008-.014.014-.029.019-.045.005-.016.009-.032.0001-.049.002-.017.002-.033 0-.05 0-.016-.005-.031-.009-.046-.004-.015-.0001-.03-.018-.044-.311-.672-.62-1.345-.927-2.02.822.081 1.643.161 2.464.242-.028.255-.042.382-.071.637-.313-.029-.47-.044-.784-.072" transform="translate(63.3 299.8)"/><path d="m0 0v-1.051c0-.039-.008-.055-.039-.055h-.801c-.027 0-.043.02-.043.048v1.05c0 .043-.015.059-.05.059h-1.04c-.031 0-.046.019-.046.054v.797c0 .031.011.047.043.047h1.047c.031 0 .046.015.046.051v.902c0 .023.016.039.039.039h.797c.032 0 .047-.012.047-.039v-.902c0-.043.008-.051.043-.051h1.047c.031 0 .043-.016.043-.051v-.801c0-.027-.015-.046-.043-.046h-1.035c-.043 0-.055-.008-.055-.051" transform="translate(60.35 304.08)"/></g></g></g></svg>

<?xml version="1.0" encoding="UTF-8" standalone="no"?>
<!-- Created with Inkscape (http://www.inkscape.org/) -->

<svg
   xmlns:dc="http://purl.org/dc/elements/1.1/"
   xmlns:cc="http://creativecommons.org/ns#"
   xmlns:rdf="http://www.w3.org/1999/02/22-rdf-syntax-ns#"
   xmlns:svg="http://www.w3.org/2000/svg"
   xmlns="http://www.w3.org/2000/svg"
   version="1.1"
   width="599.99982"
   height="319.53101"
   id="svg130091">
  <defs
     id="defs130093">
    <clipPath
       id="clipPath122001">
      <path
         d="m 45.362,296.645 19.761,0 0,10.345 -19.761,0 0,-10.345 z"
         id="path122003" />
    </clipPath>
  </defs>
  <metadata
     id="metadata130096">
    <rdf:RDF>
      <cc:Work
         rdf:about="">
        <dc:format>image/svg+xml</dc:format>
        <dc:type
           rdf:resource="http://purl.org/dc/dcmitype/StillImage" />
        <dc:title></dc:title>
      </cc:Work>
    </rdf:RDF>
  </metadata>
  <g
     transform="translate(37.142729,-418.31084)"
     id="layer1">
    <g
       transform="matrix(31.259759,0,0,-31.259759,-1472.8722,10014.713)"
       id="g121997">
      <g
         clip-path="url(#clipPath122001)"
         id="g121999">
        <path
           d="m 62.506,306.989 -16.577,0 0,-5.235 16.577,0 0,5.235 z"
           id="path122005"
           style="fill:#443a3d;fill-opacity:1;fill-rule:nonzero;stroke:none" />
        <g
           transform="translate(49.059494,303.1633)"
           id="g122007">
          <path
             d="m 0,0 c 0,-0.043 -0.035,-0.078 -0.11,-0.105 -0.207,-0.07 -0.398,-0.105 -0.578,-0.105 -0.27,0 -0.528,0.066 -0.779,0.202 -0.501,0.277 -0.779,0.74 -0.779,1.312 0,0.315 0.087,0.599 0.255,0.856 0.172,0.257 0.403,0.447 0.692,0.568 0.188,0.082 0.388,0.121 0.603,0.121 0.145,0 0.301,-0.024 0.469,-0.066 0.051,-0.012 0.09,-0.028 0.125,-0.043 l 0.043,-0.02 c 0.035,-0.015 0.055,-0.042 0.055,-0.077 l 0,-0.751 c 0,-0.02 -0.008,-0.028 -0.02,-0.028 -0.003,0 -0.015,0.008 -0.035,0.02 C -0.117,1.942 -0.203,1.989 -0.317,2.028 -0.438,2.07 -0.548,2.09 -0.641,2.09 -0.982,2.09 -1.267,1.911 -1.397,1.611 -1.44,1.514 -1.459,1.409 -1.459,1.296 c 0,-0.222 0.082,-0.401 0.246,-0.541 0.153,-0.128 0.341,-0.195 0.564,-0.195 0.254,0 0.449,0.07 0.594,0.215 0.012,0.015 0.024,0.023 0.031,0.023 C -0.008,0.798 0,0.775 0,0.724 L 0,0 z"
             id="path122009"
             style="fill:#ffffff;fill-opacity:1;fill-rule:nonzero;stroke:none" />
        </g>
        <path
           d="m 49.618,305.95 0.763,0 0,-2.919 -0.763,0 0,2.919 z"
           id="path122011"
           style="fill:#ffffff;fill-opacity:1;fill-rule:nonzero;stroke:none" />
        <g
           transform="translate(53.153702,303.0311)"
           id="g122013">
          <path
             d="m 0,0 -1.401,1.786 0,-1.786 -0.763,0 0,2.919 0.763,0 L 0,1.132 0,2.919 0.763,2.919 0.763,0 0,0 z"
             id="path122015"
             style="fill:#ffffff;fill-opacity:1;fill-rule:nonzero;stroke:none" />
        </g>
        <g
           transform="translate(54.451401,303.0311)"
           id="g122017">
          <path
             d="m 0,0 0,2.919 0.254,0 0.043,0.12 1.158,0 -0.043,-0.12 0.255,0 0,-0.643 -0.904,0 0,-0.486 0.857,0 0,-0.642 -0.857,0 0,-0.506 0.904,0 L 1.667,0 0,0 z"
             id="path122019"
             style="fill:#ffffff;fill-opacity:1;fill-rule:nonzero;stroke:none" />
        </g>
        <g
           transform="translate(65.690506,298.4662)"
           id="g122021">
          <path
             d="m 0,0 c -5.237,-0.566 -10.474,-1.133 -15.712,-1.699 -0.162,1.822 -0.323,3.645 -0.485,5.468 5.221,0.297 10.443,0.594 15.664,0.89 C -0.356,3.106 -0.178,1.553 0,0"
             id="path122023"
             style="fill:#fab20b;fill-opacity:1;fill-rule:nonzero;stroke:none" />
        </g>
        <g
           transform="translate(58.925903,299.567)"
           id="g122025">
          <path
             d="m 0,0 c 0.076,-0.333 0.114,-0.499 0.19,-0.83 0.299,0.029 0.449,0.044 0.748,0.074 C 0.686,0.242 0.436,1.242 0.186,2.242 -0.11,2.222 -0.258,2.212 -0.554,2.192 -0.667,1.769 -0.724,1.556 -0.838,1.13 -0.843,1.114 -0.848,1.099 -0.856,1.085 -0.863,1.071 -0.872,1.057 -0.881,1.045 -0.891,1.032 -0.902,1.021 -0.914,1.01 -0.926,1 -0.938,0.991 -0.952,0.984 -0.966,0.976 -0.98,0.97 -0.995,0.965 -1.01,0.96 -1.026,0.957 -1.043,0.956 -1.06,0.955 -1.076,0.955 -1.092,0.957 -1.108,0.96 -1.123,0.964 -1.138,0.969 -1.153,0.974 -1.168,0.981 -1.182,0.99 -1.195,0.998 -1.208,1.007 -1.22,1.018 -1.232,1.029 -1.243,1.041 -1.253,1.054 -1.263,1.067 -1.272,1.081 -1.28,1.096 -1.469,1.501 -1.563,1.704 -1.753,2.112 -2.048,2.092 -2.196,2.082 -2.492,2.063 -2.552,1.005 -2.611,-0.053 -2.67,-1.111 c 0.297,0.029 0.446,0.044 0.744,0.073 0.013,0.347 0.019,0.521 0.032,0.868 0.002,0.018 0.005,0.034 0.009,0.05 0.005,0.016 0.011,0.032 0.018,0.046 0.007,0.015 0.016,0.028 0.026,0.041 0.009,0.013 0.02,0.025 0.032,0.035 0.012,0.01 0.025,0.02 0.038,0.027 0.014,0.008 0.029,0.015 0.044,0.019 0.015,0.005 0.031,0.009 0.048,0.01 0.016,10e-4 0.033,10e-4 0.048,-0.001 0.016,-0.002 0.032,-0.006 0.047,-0.011 0.015,-0.006 0.03,-0.012 0.043,-0.02 0.014,-0.009 0.027,-0.018 0.039,-0.029 0.012,-0.011 0.023,-0.022 0.033,-0.036 0.01,-0.013 0.018,-0.026 0.026,-0.042 0.169,-0.348 0.254,-0.522 0.423,-0.868 0.12,0.012 0.18,0.018 0.3,0.029 0.103,0.372 0.155,0.558 0.259,0.927 0.005,0.016 0.011,0.031 0.018,0.045 0.007,0.015 0.016,0.028 0.025,0.041 0.01,0.013 0.021,0.024 0.033,0.034 0.012,0.011 0.024,0.02 0.038,0.027 0.014,0.008 0.028,0.014 0.044,0.019 0.015,0.005 0.031,0.008 0.047,0.01 0.017,0.001 0.033,0.001 0.049,-0.002 0.016,-0.002 0.032,-0.005 0.047,-0.01 0.014,-0.006 0.029,-0.012 0.043,-0.02 0.013,-0.008 0.026,-0.017 0.038,-0.028 0.012,-0.011 0.024,-0.022 0.034,-0.035 0.01,-0.013 0.018,-0.027 0.026,-0.042 C -0.012,0.032 -0.005,0.016 0,0"
             id="path122027"
             style="fill:#ffffff;fill-opacity:1;fill-rule:nonzero;stroke:none" />
        </g>
        <g
           transform="translate(54.432404,299.47681)"
           id="g122029">
          <path
             d="M 0,0 C -0.202,-0.018 -0.383,0.151 -0.405,0.376 -0.426,0.602 -0.28,0.797 -0.078,0.813 0.124,0.829 0.306,0.66 0.327,0.436 0.349,0.213 0.202,0.017 0,0 M 0.219,2.034 C -0.107,2.012 -0.269,2.001 -0.594,1.979 -0.863,0.874 -1.13,-0.231 -1.395,-1.337 c 0.316,0.031 0.474,0.047 0.791,0.078 0.04,0.163 0.061,0.244 0.101,0.407 0.009,0.033 0.024,0.063 0.043,0.09 0.02,0.026 0.043,0.048 0.071,0.064 0.028,0.016 0.058,0.027 0.091,0.03 0.281,0.026 0.422,0.039 0.703,0.065 0.033,0.003 0.066,-0.001 0.096,-0.012 0.029,-0.011 0.057,-0.028 0.081,-0.05 0.024,-0.022 0.045,-0.049 0.06,-0.079 0.068,-0.151 0.102,-0.226 0.17,-0.376 0.319,0.031 0.479,0.047 0.798,0.078 -0.467,1.024 -0.931,2.049 -1.391,3.076"
             id="path122031"
             style="fill:#ffffff;fill-opacity:1;fill-rule:nonzero;stroke:none" />
        </g>
        <g
           transform="translate(60.355804,298.8627)"
           id="g122033">
          <path
             d="M 0,0 C 0.419,0.041 0.628,0.062 1.047,0.103 0.98,0.735 0.912,1.367 0.845,1.999 0.426,1.966 0.217,1.95 -0.201,1.917 -0.134,1.278 -0.067,0.639 0,0"
             id="path122035"
             style="fill:#ffffff;fill-opacity:1;fill-rule:nonzero;stroke:none" />
        </g>
        <g
           transform="translate(60.525894,302.21851)"
           id="g122037">
          <path
             d="m 0,0 c -0.31,-0.019 -0.534,-0.299 -0.5,-0.624 0.034,-0.326 0.313,-0.57 0.624,-0.547 0.31,0.024 0.534,0.303 0.5,0.624 C 0.589,-0.225 0.31,0.02 0,0"
             id="path122039"
             style="fill:#ffffff;fill-opacity:1;fill-rule:nonzero;stroke:none" />
        </g>
        <g
           transform="translate(52.109604,299.0714)"
           id="g122041">
          <path
             d="M 0,0 C -0.014,0.15 0.082,0.281 0.214,0.293 0.446,0.313 0.561,0.323 0.792,0.342 0.765,0.628 0.752,0.771 0.725,1.056 0.494,1.038 0.379,1.029 0.148,1.01 0.016,1 -0.102,1.114 -0.117,1.264 -0.13,1.414 -0.034,1.544 0.098,1.554 0.361,1.573 0.492,1.583 0.755,1.603 0.729,1.888 0.715,2.03 0.688,2.315 0.031,2.271 -0.298,2.249 -0.955,2.205 c 0.1,-1.097 0.2,-2.195 0.3,-3.292 0.299,0.029 0.449,0.044 0.748,0.074 C 0.056,-0.608 0.037,-0.405 0,0"
             id="path122043"
             style="fill:#ffffff;fill-opacity:1;fill-rule:nonzero;stroke:none" />
        </g>
        <g
           transform="translate(63.301193,299.7966)"
           id="g122045">
          <path
             d="M 0,0 C -0.016,-0.002 -0.033,-0.001 -0.049,0 -0.064,0.002 -0.08,0.006 -0.095,0.01 -0.11,0.015 -0.125,0.022 -0.139,0.029 -0.152,0.037 -0.165,0.046 -0.177,0.056 -0.189,0.066 -0.2,0.077 -0.21,0.089 c -0.011,0.012 -0.02,0.026 -0.027,0.04 -0.008,0.013 -0.014,0.029 -0.019,0.044 -0.005,0.016 -0.009,0.032 -0.011,0.049 -0.001,0.016 -0.001,0.033 0,0.049 0.002,0.016 0.005,0.032 0.009,0.047 0.004,0.015 0.01,0.03 0.017,0.043 0.304,0.66 0.61,1.319 0.919,1.976 -0.792,-0.053 -1.584,-0.106 -2.375,-0.159 0.028,-0.26 0.042,-0.39 0.07,-0.651 0.282,0.021 0.423,0.031 0.705,0.052 0.017,0.001 0.033,0 0.049,-0.002 C -0.857,1.576 -0.842,1.572 -0.826,1.566 -0.812,1.561 -0.797,1.555 -0.783,1.547 -0.77,1.539 -0.757,1.53 -0.745,1.52 -0.733,1.509 -0.721,1.498 -0.712,1.486 -0.701,1.473 -0.692,1.46 -0.685,1.446 -0.677,1.432 -0.671,1.417 -0.666,1.401 -0.661,1.385 -0.657,1.369 -0.656,1.352 -0.654,1.335 -0.654,1.319 -0.655,1.302 -0.656,1.286 -0.66,1.271 -0.664,1.256 -0.668,1.241 -0.674,1.226 -0.682,1.212 -0.993,0.54 -1.302,-0.133 -1.609,-0.807 -0.787,-0.726 0.034,-0.646 0.855,-0.565 0.827,-0.31 0.813,-0.183 0.784,0.072 0.471,0.043 0.314,0.028 0,0"
             id="path122047"
             style="fill:#ffffff;fill-opacity:1;fill-rule:nonzero;stroke:none" />
        </g>
        <g
           transform="translate(60.353394,304.0761)"
           id="g122049">
          <path
             d="M 0,0 0,-1.051 C 0,-1.09 -0.008,-1.106 -0.039,-1.106 l -0.801,0 c -0.027,0 -0.043,0.02 -0.043,0.048 l 0,1.05 c 0,0.043 -0.015,0.059 -0.05,0.059 l -1.04,0 c -0.031,0 -0.046,0.019 -0.046,0.054 l 0,0.797 c 0,0.031 0.011,0.047 0.043,0.047 l 1.047,0 c 0.031,0 0.046,0.015 0.046,0.051 l 0,0.902 c 0,0.023 0.016,0.039 0.039,0.039 l 0.797,0 C -0.015,1.941 0,1.929 0,1.902 L 0,1 C 0,0.957 0.008,0.949 0.043,0.949 l 1.047,0 c 0.031,0 0.043,-0.016 0.043,-0.051 l 0,-0.801 C 1.133,0.07 1.118,0.051 1.09,0.051 l -1.035,0 C 0.012,0.051 0,0.043 0,0"
             id="path122051"
             style="fill:#ffffff;fill-opacity:1;fill-rule:nonzero;stroke:none" />
        </g>
      </g>
    </g>
  </g>
</svg>
